svg/u1f913.svg

<svg viewBox="0 0 128 128" xmlns="http://www.w3.org/2000/svg">
  <radialGradient id="face_1_" cx="63.6" cy="-2088.8999" gradientTransform="matrix(1 0 0 -1 0 -2026)" gradientUnits="userSpaceOnUse" r="56.9597">
    <stop offset="0.5" stop-color="#FDE030"/>
    <stop offset="0.9188" stop-color="#F7C02B"/>
    <stop offset="1" stop-color="#F4A223"/>
  </radialGradient>
  <path id="face_97_" d="M63.6,118.8c-27.9,0-58-17.5-58-55.9S35.7,7,63.6,7c15.5,0,29.8,5.1,40.4,14.4 c11.5,10.2,17.6,24.6,17.6,41.5s-6.1,31.2-17.6,41.4C93.4,113.6,79,118.8,63.6,118.8z" fill="url(#face_1_)"/>
  <g>
    <path d="M102.07,71.62c-1.33-2.46-4.14-3.53-7.14-2.6c-8.96,2.8-20.47,4.42-31.59,4.43 c-11.12-0.01-22.63-1.63-31.59-4.43c-2.99-0.93-5.81,0.14-7.14,2.6c-1.36,2.52-0.37,5.42,0.77,7.94 c6.42,14.1,20.57,22.54,37.87,22.59c0.05,0,0.11,0,0.16,0c17.3-0.05,31.45-8.49,37.87-22.59 C102.44,77.04,103.43,74.13,102.07,71.62z" fill="#35220B"/>
    <g>
      <path d="M63.42,100.89c-0.03,0-0.05,0-0.08,0c-0.03,0-0.05,0-0.08,0H63.42z" fill="#35220B"/>
      <path d="M63.49,74.7c-0.05,0-0.1,0-0.15,0c-0.05,0-0.1,0-0.15,0H63.49z" fill="#35220B"/>
    </g>
    <g>
      <path d="M63.49,74.7c-0.05,0-0.1,0-0.15,0c-0.05,0-0.1,0-0.15,0H63.49z" fill="#35220B"/>
      <path d="M63.42,100.89c-0.03,0-0.05,0-0.08,0c-0.03,0-0.05,0-0.08,0H63.42z" fill="#35220B"/>
    </g>
    <path d="M78.22,97.17c9.37-3.29,16.75-9.76,20.8-18.66c1.26-2.77,1.51-4.48,0.85-5.71 c-0.76-1.42-2.35-1.98-4.19-1.4c-9.14,2.86-20.84,4.52-32.16,4.55c-0.01,0-0.02,0-0.03,0H63.2c-0.01,0-0.02,0-0.03,0 c-11.31-0.03-23.01-1.68-32.16-4.55c-0.48-0.15-0.95-0.23-1.38-0.23c-1.24,0-2.24,0.58-2.81,1.62c-0.67,1.24-0.41,2.94,0.85,5.71 c3.98,8.73,11.17,15.12,20.29,18.47c4.3-3.41,9.37-5.22,15.46-5.22C69.53,91.76,74.08,93.7,78.22,97.17z" fill="none"/>
    <path d="M79.35,98.14c-0.37-0.34-0.75-0.65-1.13-0.97c-4.15-3.47-8.69-5.41-14.8-5.41 c-6.09,0-11.16,1.8-15.46,5.22c-0.39,0.31-0.78,0.61-1.16,0.94c-0.31,0.35-0.57,0.68-0.8,1c5.21,2.07,11.03,3.2,17.27,3.22 c0.05,0,0.11,0,0.16,0c5.96-0.02,11.54-1.05,16.57-2.95C79.82,98.85,79.61,98.51,79.35,98.14z" fill="#ED7770"/>
    <path d="M94.93,69.02c-8.96,2.8-20.47,4.42-31.59,4.43c-11.12-0.01-22.63-1.63-31.59-4.43 c-2.99-0.93-5.81,0.14-7.14,2.6c-0.21,0.39-0.35,0.79-0.45,1.2c0.33,0.17,0.71,0.34,1.16,0.52c12.1,6.17,25.16,8.93,38.8,8.93 c13.09,0,25.64-2.55,37.33-8.21c0.47-0.2,0.86-0.39,1.21-0.57c-0.09-0.64-0.27-1.26-0.6-1.87 C100.74,69.16,97.93,68.08,94.93,69.02z" fill="#FFFFFF"/>
  </g>
  <path d="M62.84,75.06C62.84,75.06,62.84,75.06,62.84,75.06C62.84,75.06,62.84,75.06,62.84,75.06 c8.17,0.14,14.82-1.1,22.9-2.64c2.02-0.39,4.03-0.84,6.02-1.37l1.49-0.41c0.45-0.12,0.79-0.2,1.19-0.23 c0.76-0.07,1.5,0.04,2.14,0.31c1.27,0.53,3.08,2.13,3.53,3.41c1.19,3.4-0.74,9.34-0.26,8.35c0.02-0.03,1.23-2.07,1.24-2.1 c0.81-1.95,1.87-4.16,1.61-6.83c-0.27-2.69-2.3-5.16-4.83-6.09c-1.25-0.47-2.58-0.58-3.82-0.41c-0.61,0.07-1.26,0.25-1.77,0.42 l-1.41,0.46c-1.89,0.58-3.81,1.1-5.75,1.56c-7.76,1.81-14.16,2.76-22.18,2.96c0,0,0,0,0,0s0,0,0,0H62.7c0,0,0,0,0,0s0,0,0,0 c-8.02-0.19-14.03-1.15-21.79-2.96c-1.94-0.46-3.86-0.98-5.75-1.56l-1.41-0.46c-0.52-0.17-1.16-0.35-1.77-0.42 c-1.24-0.17-2.58-0.06-3.82,0.41c-2.53,0.93-4.31,3.39-4.67,6.07c-0.58,4.38,3.39,9.09,3.41,9.12c0.48,0.99-2.01-5.14-0.82-8.54 c0.45-1.28,2.1-2.86,3.36-3.39c0.64-0.27,1.37-0.39,2.14-0.31c0.4,0.03,0.73,0.11,1.19,0.23l1.49,0.41c2,0.53,4.01,0.98,6.02,1.37 c8.07,1.53,14.16,2.77,22.33,2.64" fill="#EB8F00"/>
  <g id="nerd-face_2_">
    <path id="prop_12_" d="M125.75,33.33c0,0-1.03-1.78-20.16-3.56c-25.47-2.37-34.61,4.71-36.33,6.31 l-0.18-0.01c-1.91-0.12-3.72-0.24-5.72-0.24c-0.03,0-0.06,0-0.09,0c-0.98,0.01-2.93,0.11-4.59,0.21 c-1.84-1.69-11.04-8.62-36.28-6.27C3.28,31.55,2.25,33.33,2.25,33.33l-0.12,7.22c0,0,2.85,0.81,4.7,3.1 c1.84,2.26,2.7,14.92,5.69,20.87c4.63,9.24,27.65,6.9,27.65,6.9s9.39,0.74,13.97-7.17c4.15-7.15,5.69-17.17,5.94-19 c0.95-0.55,2.19-0.98,3.77-1c1.77,0.02,3.12,0.56,4.11,1.2c0.33,2.26,1.9,11.88,5.91,18.79c4.58,7.9,13.97,7.17,13.97,7.17 s23.02,2.34,27.65-6.9c2.99-5.96,3.85-18.61,5.69-20.87c1.84-2.29,4.7-3.1,4.7-3.1L125.75,33.33z M52.35,53.25 c-1.82,8.44-4.11,14.19-19.72,13.3C22.58,65.98,15.59,66,13.98,51.34c-0.99-9.11,0.11-12.55,0.86-13.65 c0.74-1.09,3.43-4.25,18.98-3.7c15.55,0.55,17.78,4.04,18.69,5.62c0.04,0.06,0.07,0.13,0.11,0.2l0.66,2.18 C53.65,44.16,53.57,47.64,52.35,53.25z M114.02,51.34c-1.6,14.66-8.59,14.64-18.64,15.21c-15.61,0.89-17.9-4.86-19.72-13.3 c-1.83-8.42-1.09-12.07-0.17-13.64c0.91-1.58,3.14-5.08,18.69-5.62c15.56-0.55,18.24,2.61,18.98,3.7 C113.9,38.79,115.01,42.23,114.02,51.34z" fill="#35220B"/>
  </g>
  <path d="M90.02,41.94L90.02,41.94c-4.19,0-8,3.54-8,9.42s3.81,9.42,8,9.42l0,0c4.19,0,8-3.54,8-9.42 S94.21,41.94,90.02,41.94z" fill="#35220B"/>
  <g id="peepers_125_">
    <path d="M89.63,45.87L89.63,45.87c-1.03-0.72-2.58-0.49-3.58,0.95c-1,1.45-0.67,2.97,0.36,3.69l0,0 c1.03,0.72,2.58,0.49,3.58-0.95C91,48.11,90.67,46.59,89.63,45.87z" fill="#896024"/>
  </g>
  <path d="M90.02,41.94L90.02,41.94c-4.19,0-8,3.54-8,9.42s3.81,9.42,8,9.42l0,0c4.19,0,8-3.54,8-9.42 S94.21,41.94,90.02,41.94z" fill="#35220B"/>
  <g id="peepers_127_">
    <path d="M89.63,45.87L89.63,45.87c-1.03-0.72-2.58-0.49-3.58,0.95c-1,1.45-0.67,2.97,0.36,3.69l0,0 c1.03,0.72,2.58,0.49,3.58-0.95C91,48.11,90.67,46.59,89.63,45.87z" fill="#896024"/>
  </g>
  <g>
    <path d="M37.67,41.94L37.67,41.94c-4.19,0-8,3.54-8,9.42s3.81,9.42,8,9.42l0,0c4.19,0,8-3.54,8-9.42 S41.86,41.94,37.67,41.94z" fill="#35220B"/>
    <g id="peepers_126_">
      <path d="M37.28,45.87L37.28,45.87c-1.03-0.72-2.58-0.49-3.58,0.95c-1,1.45-0.67,2.97,0.36,3.69l0,0 c1.03,0.72,2.58,0.49,3.58-0.95C38.64,48.11,38.31,46.59,37.28,45.87z" fill="#896024"/>
    </g>
  </g>
</svg>

<svg viewBox="0 0 128 128" xmlns="http://www.w3.org/2000/svg">
  <defs>
    <radialGradient id="face_1_" cx="63.6" cy="-62.8999" gradientTransform="matrix(1 0 0 -1 0 0)" gradientUnits="userSpaceOnUse" r="56.9597">
      <stop offset="0.5" stop-color="#FDE030"/>
      <stop offset="0.9188" stop-color="#F7C02B"/>
      <stop offset="1" stop-color="#F4A223"/>
    </radialGradient>
  </defs>
  <path id="face_97_" d="M63.6,118.8 C35.7,118.8 5.6,101.3 5.6,62.9 C5.6,24.5 35.7,7 63.6,7 C79.1,7 93.4,12.1 104,21.4 C115.5,31.6 121.6,46 121.6,62.9 C121.6,79.8 115.5,94.1 104,104.3 C93.4,113.6 79,118.8 63.6,118.8 Z" fill="url(#face_1_)"/>
  <path d="M102.07,71.62 C100.74,69.16 97.93,68.09 94.93,69.02 C85.97,71.82 74.46,73.44 63.34,73.45 C52.22,73.44 40.71,71.82 31.75,69.02 C28.76,68.09 25.94,69.16 24.61,71.62 C23.25,74.14 24.24,77.04 25.38,79.56 C31.8,93.66 45.95,102.1 63.25,102.15 C63.3,102.15 63.36,102.15 63.41,102.15 C80.71,102.1 94.86,93.66 101.28,79.56 C102.44,77.04 103.43,74.13 102.07,71.62 Z" fill="#35220B"/>
  <path d="M79.35,98.14 C78.98,97.8 78.6,97.49 78.22,97.17 C74.07,93.7 69.53,91.76 63.42,91.76 C57.33,91.76 52.26,93.56 47.96,96.98 C47.57,97.29 47.18,97.59 46.8,97.92 C46.49,98.27 46.23,98.6 46,98.92 C51.21,100.99 57.03,102.12 63.27,102.14 C63.32,102.14 63.38,102.14 63.43,102.14 C69.39,102.12 74.97,101.09 80,99.19 C79.82,98.85 79.61,98.51 79.35,98.14 Z" fill="#ED7770"/>
  <path d="M94.93,69.02 C85.97,71.82 74.46,73.44 63.34,73.45 C52.22,73.44 40.71,71.82 31.75,69.02 C28.76,68.09 25.94,69.16 24.61,71.62 C24.4,72.01 24.26,72.41 24.16,72.82 C24.49,72.99 24.87,73.16 25.32,73.34 C37.42,79.51 50.48,82.27 64.12,82.27 C77.21,82.27 89.76,79.72 101.45,74.06 C101.92,73.86 102.31,73.67 102.66,73.49 C102.57,72.85 102.39,72.23 102.06,71.62 C100.74,69.16 97.93,68.08 94.93,69.02 Z" fill="#FFFFFF"/>
  <path d="M62.84,75.06 C62.84,75.06 62.84,75.06 62.84,75.06 C62.84,75.06 62.84,75.06 62.84,75.06 C71.01,75.2 77.66,73.96 85.74,72.42 C87.76,72.03 89.77,71.58 91.76,71.05 L93.25,70.64 C93.7,70.52 94.04,70.44 94.44,70.41 C95.2,70.34 95.94,70.45 96.58,70.72 C97.85,71.25 99.66,72.85 100.11,74.13 C101.3,77.53 99.37,83.47 99.85,82.48 C99.87,82.45 101.08,80.41 101.09,80.38 C101.9,78.43 102.96,76.22 102.7,73.55 C102.43,70.86 100.4,68.39 97.87,67.46 C96.62,66.99 95.29,66.88 94.05,67.05 C93.44,67.12 92.79,67.3 92.28,67.47 L90.87,67.93 C88.98,68.51 87.06,69.03 85.12,69.49 C77.36,71.3 70.96,72.25 62.94,72.45 C62.94,72.45 62.94,72.45 62.94,72.45 C62.94,72.45 62.94,72.45 62.94,72.45 L62.7,72.45 C62.7,72.45 62.7,72.45 62.7,72.45 C62.7,72.45 62.7,72.45 62.7,72.45 C54.68,72.26 48.67,71.3 40.91,69.49 C38.97,69.03 37.05,68.51 35.16,67.93 L33.75,67.47 C33.23,67.3 32.59,67.12 31.98,67.05 C30.74,66.88 29.4,66.99 28.16,67.46 C25.63,68.39 23.85,70.85 23.49,73.53 C22.91,77.91 26.88,82.62 26.9,82.65 C27.38,83.64 24.89,77.51 26.08,74.11 C26.53,72.83 28.18,71.25 29.44,70.72 C30.08,70.45 30.81,70.33 31.58,70.41 C31.98,70.44 32.31,70.52 32.77,70.64 L34.26,71.05 C36.26,71.58 38.27,72.03 40.28,72.42 C48.35,73.95 54.44,75.19 62.61,75.06" fill="#EB8F00"/>
  <path id="prop_12_" d="M125.75,33.33 C125.75,33.33 124.72,31.55 105.59,29.77 C80.12,27.4 70.98,34.48 69.26,36.08 L69.08,36.07 C67.17,35.95 65.36,35.83 63.36,35.83 C63.33,35.83 63.3,35.83 63.27,35.83 C62.29,35.84 60.34,35.94 58.68,36.04 C56.84,34.35 47.64,27.42 22.4,29.77 C3.28,31.55 2.25,33.33 2.25,33.33 L2.13,40.55 C2.13,40.55 4.98,41.36 6.83,43.65 C8.67,45.91 9.53,58.57 12.52,64.52 C17.15,73.76 40.17,71.42 40.17,71.42 C40.17,71.42 49.56,72.16 54.14,64.25 C58.29,57.1 59.83,47.08 60.08,45.25 C61.03,44.7 62.27,44.27 63.85,44.25 C65.62,44.27 66.97,44.81 67.96,45.45 C68.29,47.71 69.86,57.33 73.87,64.24 C78.45,72.14 87.84,71.41 87.84,71.41 C87.84,71.41 110.86,73.75 115.49,64.51 C118.48,58.55 119.34,45.9 121.18,43.64 C123.02,41.35 125.88,40.54 125.88,40.54 L125.75,33.33 Z M52.35,53.25 C50.53,61.69 48.24,67.44 32.63,66.55 C22.58,65.98 15.59,66 13.98,51.34 C12.99,42.23 14.09,38.79 14.84,37.69 C15.58,36.6 18.27,33.44 33.82,33.99 C49.37,34.54 51.6,38.03 52.51,39.61 C52.55,39.67 52.58,39.74 52.62,39.81 L53.28,41.99 C53.65,44.16 53.57,47.64 52.35,53.25 Z M114.02,51.34 C112.42,66 105.43,65.98 95.38,66.55 C79.77,67.44 77.48,61.69 75.66,53.25 C73.83,44.83 74.57,41.18 75.49,39.61 C76.4,38.03 78.63,34.53 94.18,33.99 C109.74,33.44 112.42,36.6 113.16,37.69 C113.9,38.79 115.01,42.23 114.02,51.34 Z" fill="#35220B"/>
  <path d="M90.02,41.94 L90.02,41.94 C85.83,41.94 82.02,45.48 82.02,51.36 C82.02,57.24 85.83,60.78 90.02,60.78 L90.02,60.78 C94.21,60.78 98.02,57.24 98.02,51.36 C98.02,45.48 94.21,41.94 90.02,41.94 Z" fill="#35220B"/>
  <path d="M89.63,45.87 L89.63,45.87 C88.6,45.15 87.05,45.38 86.05,46.82 C85.05,48.27 85.38,49.79 86.41,50.51 L86.41,50.51 C87.44,51.23 88.99,51 89.99,49.56 C91,48.11 90.67,46.59 89.63,45.87 Z" fill="#896024"/>
  <path d="M90.02,41.94 L90.02,41.94 C85.83,41.94 82.02,45.48 82.02,51.36 C82.02,57.24 85.83,60.78 90.02,60.78 L90.02,60.78 C94.21,60.78 98.02,57.24 98.02,51.36 C98.02,45.48 94.21,41.94 90.02,41.94 Z" fill="#35220B"/>
  <path d="M89.63,45.87 L89.63,45.87 C88.6,45.15 87.05,45.38 86.05,46.82 C85.05,48.27 85.38,49.79 86.41,50.51 L86.41,50.51 C87.44,51.23 88.99,51 89.99,49.56 C91,48.11 90.67,46.59 89.63,45.87 Z" fill="#896024"/>
  <path d="M37.67,41.94 L37.67,41.94 C33.48,41.94 29.67,45.48 29.67,51.36 C29.67,57.24 33.48,60.78 37.67,60.78 L37.67,60.78 C41.86,60.78 45.67,57.24 45.67,51.36 C45.67,45.48 41.86,41.94 37.67,41.94 Z" fill="#35220B"/>
  <path d="M37.28,45.87 L37.28,45.87 C36.25,45.15 34.7,45.38 33.7,46.82 C32.7,48.27 33.03,49.79 34.06,50.51 L34.06,50.51 C35.09,51.23 36.64,51 37.64,49.56 C38.64,48.11 38.31,46.59 37.28,45.87 Z" fill="#896024"/>
</svg>
